X:0711891
T:[ID 7-189]
T:Bezeichnung standardisiert: Menuet [mit Trio]
T:Menuet Con Trio
C:Urheber unbekannt
C:Datum in der hier transkribierten schriftlichen Quelle: 1776 - 1791
O:Deutschland; Westfalen; Dinker
S:"Tanzsammlung Dahlhoff" Staatsbibliothek zu Berlin, Musiksammlung, Mus. ms. 40182, Buch 07, 189/1, PDF Nr: 916
S:Scan online: http://resolver.staatsbibliothek-berlin.de/SBB0000969000000916
F:http://simonwascher.info/TradArchiv/Dahlhoff/ file-version 2017-11-21
Z:Erfassung in Capella Richmud Rollenbeck, Konversion nach MusicXML Joergen Lang, Konversion nach abc und abc Lektorat Simon Wascher
L:1/8
M:3/4
K:F
F4Ac | f2f2f2 | c4gb | afegf2 | ag{g}f4 | gf{f}e4 | fagfed | c6 ::
c4ac | cB AcB2 | B4gB | BAGBA2 | F4Ac | fagefc | (3dcBA2G2 | {G}F6 H:|
P:Trio
M:3/4
c4(3Bcd | c2d2e2 | f4ed | c2B2A2 | ^GcBcdc | A2G2F2 | EGc2=B2 | c6 ::
c2ecAc | B2c2d2 | B2dBGB | A2B2c2 | [AD]fedcB | AcBdce | (3dcBA2G2 | {G}F6 H:|

